src/assets/icons/shapes,simple,outline-star4.svg

<svg width="48" height="48" viewBox="0 0 48 48" fill="none" xmlns="http://www.w3.org/2000/svg">
<rect opacity="0.2" x="5" y="5" width="38" height="38" rx="4" fill="black"/>
<path d="M19.0638 19.0638L19.0638 19.0638C18.8855 19.242 18.6743 19.3678 18.5072 19.4673C18.4921 19.4764 18.4773 19.4852 18.463 19.4938L12.376 23.1423C11.7083 23.5426 11.3072 23.786 11.0588 23.99C11.0547 23.9934 11.0507 23.9967 11.0467 24C11.0507 24.0033 11.0547 24.0066 11.0588 24.01C11.3072 24.214 11.7082 24.4574 12.376 24.8577L11.8619 25.7154L12.376 24.8577L18.463 28.5062C18.4773 28.5148 18.4921 28.5236 18.5072 28.5327C18.6743 28.6322 18.8855 28.758 19.0638 28.9362C19.242 29.1145 19.3678 29.3257 19.4673 29.4928C19.4764 29.5079 19.4852 29.5227 19.4938 29.537L23.1423 35.624C23.5426 36.2917 23.786 36.6928 23.99 36.9412C23.9934 36.9453 23.9967 36.9494 24 36.9533C24.0033 36.9494 24.0066 36.9453 24.01 36.9412C24.214 36.6928 24.4574 36.2917 24.8577 35.624L28.5062 29.537C28.5148 29.5227 28.5236 29.5079 28.5327 29.4928C28.6322 29.3257 28.758 29.1145 28.9362 28.9362L19.0638 19.0638ZM19.0638 19.0638C19.242 18.8855 19.3678 18.6743 19.4673 18.5072C19.4764 18.4921 19.4852 18.4773 19.4938 18.463L23.1423 12.376C23.5426 11.7083 23.786 11.3072 23.99 11.0588M19.0638 19.0638L23.99 11.0588M23.99 11.0588C23.9934 11.0547 23.9967 11.0507 24 11.0467M23.99 11.0588L24 11.0467M24 11.0467C24.0033 11.0507 24.0066 11.0547 24.01 11.0588C24.214 11.3072 24.4574 11.7082 24.8577 12.376L25.7154 11.8619L24.8577 12.376L28.5062 18.463C28.5148 18.4773 28.5236 18.4921 28.5327 18.5072C28.6322 18.6743 28.758 18.8855 28.9362 19.0638C29.1145 19.242 29.3257 19.3678 29.4928 19.4673C29.5079 19.4764 29.5227 19.4852 29.537 19.4938L35.624 23.1423C36.2917 23.5426 36.6928 23.786 36.9412 23.99C36.9453 23.9934 36.9494 23.9967 36.9533 24C36.9494 24.0033 36.9453 24.0066 36.9412 24.01C36.6928 24.214 36.2917 24.4574 35.624 24.8577L29.537 28.5062C29.5227 28.5148 29.5079 28.5236 29.4928 28.5327C29.3257 28.6322 29.1145 28.758 28.9362 28.9362L24 11.0467ZM23.8685 37.0876C23.8685 37.0875 23.8704 37.0861 23.8739 37.084C23.8703 37.0867 23.8685 37.0878 23.8685 37.0876ZM24.1261 37.084C24.1296 37.0861 24.1315 37.0875 24.1315 37.0876C24.1315 37.0878 24.1297 37.0867 24.1261 37.084ZM10.9124 23.8685C10.9125 23.8686 10.9139 23.8704 10.916 23.8739C10.9132 23.8703 10.9122 23.8685 10.9124 23.8685ZM10.916 24.1261C10.9139 24.1296 10.9125 24.1314 10.9124 24.1315C10.9122 24.1315 10.9132 24.1297 10.916 24.1261ZM24.1315 10.9124C24.1314 10.9125 24.1296 10.9139 24.1261 10.916C24.1297 10.9132 24.1315 10.9122 24.1315 10.9124ZM23.8685 10.9124C23.8685 10.9122 23.8703 10.9132 23.8739 10.916C23.8704 10.9139 23.8686 10.9125 23.8685 10.9124ZM37.0876 24.1315C37.0875 24.1314 37.0861 24.1296 37.084 24.1261C37.0868 24.1297 37.0878 24.1315 37.0876 24.1315ZM37.084 23.8739C37.0861 23.8704 37.0875 23.8686 37.0876 23.8685C37.0878 23.8685 37.0868 23.8703 37.084 23.8739Z" stroke="black" stroke-width="2"/>
</svg>

<svg xmlns="http://www.w3.org/2000/svg" width="48" height="48" fill="none" viewBox="0 0 48 48">
  <rect width="38" height="38" x="5" y="5" fill="#000" opacity=".2" rx="4"/>
  <path stroke="#000" stroke-width="2" d="M24.858 12.376l3.648 6.087.027.044c.1.167.225.378.403.557.178.178.39.304.557.403l.044.027 6.087 3.648c.668.4 1.069.644 1.317.848l.012.01-.012.01c-.248.204-.65.447-1.317.848l-6.087 3.648-.044.027c-.167.1-.378.225-.557.403-.178.178-.304.39-.403.557l-.027.044-3.648 6.087c-.4.668-.644 1.069-.848 1.317l-.01.012-.01-.012c-.204-.248-.447-.65-.848-1.317l-3.648-6.087-.027-.044a2.758 2.758 0 00-.403-.557 2.758 2.758 0 00-.557-.403l-.044-.027-6.087-3.648c-.668-.4-1.069-.644-1.317-.848a6.14 6.14 0 00-.012-.01 6.14 6.14 0 00.012-.01c.248-.204.65-.447 1.317-.848l6.087-3.648.044-.027c.167-.1.378-.225.557-.403.178-.178.304-.39.403-.557l.027-.044 3.648-6.087c.4-.668.644-1.069.848-1.317a6.14 6.14 0 00.01-.012l.01.012c.204.248.447.65.848 1.317zm12.23 11.755a.05.05 0 01-.004-.005.02.02 0 01.004.005zm-.004-.257a.05.05 0 01.004-.005l-.004.005zM23.868 37.088l.006-.004a.024.024 0 01-.005.004zm.258-.004a.04.04 0 01.005.004l-.005-.004zM10.912 23.868l.004.006a.02.02 0 01-.004-.005zm.004.258a.05.05 0 01-.004.005l.004-.005zm13.215-13.214l-.005.004a.02.02 0 01.005-.004zm-.257.004a.05.05 0 01-.005-.004l.005.004z"/>
</svg>
